_includes/icons/ios-medium.svg

<svg fill="#666" height="50" viewBox="0 0 50 50" width="50" xmlns="http://www.w3.org/2000/svg"><path d="m47.507813 12.441406c-.046875-.066406-.097657-.132812-.15625-.191406-.050782-.054687-.101563-.109375-.160157-.15625-.136718-.121094-.28125-.230469-.449218-.3125l-11.964844-6.0625-.710938-.359375h-.003906c-.222656-.113281-.460937-.199219-.703125-.257812-.265625-.066407-.539062-.101563-.808594-.101563-1.199218 0-2.324218.628906-2.941406 1.636719l-1.765625 2.910156-5.265625 8.664063-2.839844-5.554688c-.21875-.359375-.523437-.640625-.886718-.824219l-12.011719-6.078125c0-.003906-.003906-.003906-.007813-.007812l-.378906-.1875c-.5-.253906-1.015625-.382813-1.53125-.382813-1.664062 0-2.921875 1.347657-2.921875 3.136719v27.054688c0 1.476562.949219 3.027343 2.261719 3.691406l10.898437 5.515625c.554688.28125 1.121094.425781 1.6875.425781 1.828125 0 3.152344-1.4375 3.152344-3.421875v-8.730469l22 11.152344v-.011719l.769531.390625c.671875.339844 1.34375.511719 2 .511719 1.871094 0 3.230469-1.394531 3.230469-3.3125v-27.742187c0-.523438-.1875-1-.492187-1.394532zm-29.507813 29.136719c0 .890625-.476562 1.421875-1.152344 1.421875-.238281 0-.503906-.066406-.785156-.207031l-10.898437-5.519531c-.640625-.324219-1.164063-1.183594-1.164063-1.90625v-27.054688c0-.714844.378906-1.136719.921875-1.136719.191406 0 .40625.050782.628906.164063l.382813.195312h.003906l12.011719 6.082032c.019531.011718.035156.03125.050781.046875zm12.585938-32.695312.734375-1.207032c.261718-.429687.742187-.675781 1.230468-.675781.113282 0 .230469.015625.34375.046875.085938.019531.175782.050781.269532.097656l12.667968 6.414063c.003907 0 .003907.003906.003907.003906l.011718.003906c.007813.003907.007813.015625.015625.019532.0625.050781.089844.136718.046875.207031l-12.617187 20.765625-1.289063 2.117187-8.359375-16.371093zm-10.585938 21.722656v-13.042969l8.980469 17.59375-8.078125-4.089844zm26 10.972656c0 .835938-.496094 1.3125-1.226562 1.3125-.328125 0-.703125-.09375-1.097657-.292969l-1.808593-.917968-8.078125-4.089844 12.210937-20.09375z"/></svg>

<svg xmlns="http://www.w3.org/2000/svg" viewBox="0 0 50 50" width="50" height="50" fill="#666"><path d="M 47.507813 12.441406 C 47.460938 12.375 47.410156 12.308594 47.351563 12.25 C 47.300781 12.195313 47.25 12.140625 47.191406 12.09375 C 47.054688 11.972656 46.910156 11.863281 46.742188 11.78125 L 34.777344 5.71875 L 34.066406 5.359375 C 34.066406 5.359375 34.0625 5.359375 34.0625 5.359375 C 33.839844 5.246094 33.601563 5.160156 33.359375 5.101563 C 33.09375 5.035156 32.820313 5 32.550781 5 C 31.351563 5 30.226563 5.628906 29.609375 6.636719 L 27.84375 9.546875 L 22.578125 18.210938 L 19.738281 12.65625 C 19.519531 12.296875 19.214844 12.015625 18.851563 11.832031 L 6.839844 5.753906 C 6.839844 5.75 6.835938 5.75 6.832031 5.746094 L 6.453125 5.558594 C 5.953125 5.304688 5.4375 5.175781 4.921875 5.175781 C 3.257813 5.175781 2 6.523438 2 8.3125 L 2 35.367188 C 2 36.84375 2.949219 38.394531 4.261719 39.058594 L 15.160156 44.574219 C 15.714844 44.855469 16.28125 45 16.847656 45 C 18.675781 45 20 43.5625 20 41.578125 L 20 32.847656 L 42 44 L 42 43.988281 L 42.769531 44.378906 C 43.441406 44.71875 44.113281 44.890625 44.769531 44.890625 C 46.640625 44.890625 48 43.496094 48 41.578125 L 48 13.835938 C 48 13.3125 47.8125 12.835938 47.507813 12.441406 Z M 18 41.578125 C 18 42.46875 17.523438 43 16.847656 43 C 16.609375 43 16.34375 42.933594 16.0625 42.792969 L 5.164063 37.273438 C 4.523438 36.949219 4 36.089844 4 35.367188 L 4 8.3125 C 4 7.597656 4.378906 7.175781 4.921875 7.175781 C 5.113281 7.175781 5.328125 7.226563 5.550781 7.339844 L 5.933594 7.535156 C 5.933594 7.535156 5.9375 7.535156 5.9375 7.535156 L 17.949219 13.617188 C 17.96875 13.628906 17.984375 13.648438 18 13.664063 Z M 30.585938 8.882813 L 31.320313 7.675781 C 31.582031 7.246094 32.0625 7 32.550781 7 C 32.664063 7 32.78125 7.015625 32.894531 7.046875 C 32.980469 7.066406 33.070313 7.097656 33.164063 7.144531 L 45.832031 13.558594 C 45.835938 13.558594 45.835938 13.5625 45.835938 13.5625 L 45.847656 13.566406 C 45.855469 13.570313 45.855469 13.582031 45.863281 13.585938 C 45.925781 13.636719 45.953125 13.722656 45.910156 13.792969 L 33.292969 34.558594 L 32.003906 36.675781 L 23.644531 20.304688 Z M 20 30.605469 L 20 17.5625 L 28.980469 35.15625 L 20.902344 31.066406 Z M 46 41.578125 C 46 42.414063 45.503906 42.890625 44.773438 42.890625 C 44.445313 42.890625 44.070313 42.796875 43.675781 42.597656 L 41.867188 41.679688 L 33.789063 37.589844 L 46 17.496094 Z"/></svg>
